src/assets/actions/setscene/icon.svg

<svg xmlns="http://www.w3.org/2000/svg" width="144" height="144" viewBox="34 34 76 76">
	<path fill="#EFEFEF" fill-rule="evenodd"
		d="M40,100 L40,52 L104,52 L104,100 L40,100 Z M44,96 L100,96 L100,56 L44,56.1831264 L44,96 Z M92.000782,68 L96.000782,76 L84,76 L88.000782,68 L92.000782,68 Z M96.000782,84 L96.000782,92 L48,92 L48.000782,84 L96.000782,84 Z M48,60 L64,60 L64,68 L48,68 L48,60 Z M90,68 C87.790861,68 86,66.209139 86,64 C86,61.790861 87.790861,60 90,60 C92.209139,60 94,61.790861 94,64 C94,66.209139 92.209139,68 90,68 Z M48.0125125,48 L48.0125125,44 L96,44 L96,48 L48.0125125,48 Z M60,40 L60,36 L82,36 L82,40 L60,40 Z">
	</path>
</svg>

<svg xmlns="http://www.w3.org/2000/svg" width="144" height="144" viewBox="34 34 76 76"><path fill="#efefef" fill-rule="evenodd" d="M40 100V52h64v48H40zm4-4h56V56l-56 .183V96zm48-28l4 8H84l4-8h4zm4 16v8H48v-8h48zM48 60h16v8H48v-8zm42 8a4 4 0 110-8 4 4 0 010 8zM48.013 48v-4H96v4H48.013zM60 40v-4h22v4H60z"/></svg>
